X:72
T:Skating While the Ice Melts
R:hornpipe
D:Brian Finnegan:
Z:id:hn-hornpipe-72
M:C|
K:D
(3FGA Bd BA^G2|^A2F2 e4|^d2B2 f4|^gfed cBA=G|
FABd BA^GB|A=GFA ^d4|e2e^e fAc=e|dAGA ~F3z:|
|:~g3e ~f3d|~e3c d2 (3cdc|B2A2 GAFG|E2F2 G2^G2|
AFAd BA^GB|A=GFA a3a|bagf eAce|1 dAGA ~F3z:|2 d4 ^A4||
B2B^d c2ce|^d2df e2e2|fb^ab c'b^ab|=agfe ^dcB_B|
A2Ac B2Bd|cAce d2d2|ea^ga ba^ga|=gfed cBAG|
FABd BA^GB|A=GFA ^d4|~e3f ~g3a|bged cBAG|
FABd BA^GB|A=GFA a3a|bagf eAce|d4 d2 (3def||
|:g2g2 fdfa|g2c2 d2ef|g2f2 e2d2|1c2B2 A2G2|FABd edcd|gf^ef c'b3|
fg^ga =gece|dAGA F3z:|2 c2d2 e2^e2|f2fa g2eg|f2e2 ^dB^AB|GA^AB fBB=A|d4 ^A4||
B2B^d c2ce|^d2df e2e2|fb^ab c'b^ab|=agfe ^dcB_B|
A2Ac B2Bd|cAce d2d2|ea^ga ba^ga|=gfed cBAG|
FABd BA^GB|A=GFA ^d4|~e3f ~g3a|bged cBAG|
FABd BA^GB|A=GFA a3a|bagf eAce|d4 d4||

